X:267
T:Larry O'Gaff
C:
N:Transcribed by Tristan Scroggins
R:bluegrass
L:1/8
Q:1/4=200
M:6/8
K:G
|: g2G {c}BAG | Bde {^d}=dBG | cec BdB | ABc def | g2G {c}BAG | Bde {^d}=dBG | 
cec BdB |1 ABA Ggf :|2 ABA G3 |: def gfg | aba afd | daa aga | bgg g2d | def gfe | 
ded {^d}=dBG | cec BdB |1 ABA G2d :|2 ABc def | 


